!!!COM: Schiørring, Niels
!!!CDT: 1743-1798
!!!OPR@@DA: Choral-Bog
!!!ONM: 97
!!!OTL@@DA: Vor Gud haner ſaa ſaſt en Borg
**kern	**fb	**kern	**kern	**kern	**kern	**kern	**kern	**kern
*part6	*part6	*part6	*part5	*part5	*part4	*part3	*part2	*part1
*staff8	*	*staff7	*staff6	*staff5	*staff4	*staff3	*staff2	*staff1
*clefF4	*	*clefC1	*clefF4	*clefC1	*clefF4	*clefC4	*clefC3	*clefC1
*mclefF4	*	*mclefG2	*mclefF4	*mclefG2	*mclefF4	*mclefGv2	*mclefG2	*mclefG2
*k[]	*	*k[]	*k[]	*k[]	*k[]	*k[]	*k[]	*k[]
*M4/4	*	*M4/4	*M4/4	*M4/4	*M4/4	*M4/4	*M4/4	*M4/4
*met(c)	*	*met(c)	*met(c)	*met(c)	*met(c)	*met(c)	*met(c)	*met(c)
*MM180	*	*MM180	*MM180	*MM180	*MM180	*MM180	*MM180	*MM180
*	*above	*	*	*	*	*	*	*
*	*slash	*	*	*	*	*	*	*
*	*	*	*^	*^	*	*	*	*
=1	=1	=1	=1	=1	=1	=1	=1	=1	=1	=1
2c	.	2cc	2ryy	2c	2e	2g	2C	2G	2e	2cc
=2	=2	=2	=2	=2	=2	=2	=2	=2	=2	=2
2A	.	2cc	2ryy	2A	2e	2g	2A	2c	2e	2cc
*	*	*	*	*	*	*^	*	*	*	*
2F	.	2cc	2c	2F	2cc	2a	2f\	2F	2c	2a	2cc
=3	=3	=3	=3	=3	=3	=3	=3	=3	=3	=3	=3
2E	6	2g	2c	2E	2g	2g	1r	2E	2c	2g	2g
2D	6	2b	2ryy	2D	2d	2f	.	2D	2d	2f	2b
=4	=4	=4	=4	=4	=4	=4	=4	=4	=4	=4	=4
2C	.	2cc	2ryy	2C	2e	2.g	1r	2C	2e	2.g	2cc
2D	4	2a	4d	2D	2a	.	.	2D	(4d	.	2a
.	#	.	4c	.	.	4f#X	.	.	4c)	4f#X	.
=5	=5	=5	=5	=5	=5	=5	=5	=5	=5	=5	=5
2GG	.	2g	2ryy	2GG	2B	2d	1r	2GG	2B	2g	2g
2A	.	2cc	2e	2A	2cc	[2a	.	2A	2e	(4e	2cc
.	.	.	.	.	.	.	.	.	.	[4a)	.
=6	=6	=6	=6	=6	=6	=6	=6	=6	=6	=6	=6
2E	4	2b	2e	2E	2b	4a]	1r	2E	2e	(4a]	2b
.	3	.	.	.	.	2g	.	.	.	2g)	.
2F	9	2a	2c	2F	2a	.	.	2F	2c	.	2a
.	8	.	.	.	.	[4f	.	.	.	[4f	.
=7	=7	=7	=7	=7	=7	=7	=7	=7	=7	=7	=7
2C	8 4	2g	4c	2C	2g	4f]	1r	2C	(4c	(4f]	2g
.	-7 3	.	4B-X	.	.	2.e	.	.	4B-X)	4e)	.
2C#X	6	2a	2A	2C#X	2a	.	.	2C#X	2A	2e	2a
=8	=8	=8	=8	=8	=8	=8	=8	=8	=8	=8	=8
4D	5	4f	8AL	4D	4f	4d	1r	(4D	(8AL	(4d	(4f
.	6	.	8BniJ	.	.	.	.	.	8BiJ	.	.
4E	6	4e	4G	4E	4e	2cni	.	4E	4c	2c	4e
4F	6 5	2d	4A	4F	2d	.	.	4F	4A	.	2d)
4G	3	.	4G	4G	.	4B	.	4G)	4G)	4B)	.
=9	=9	=9	=9	=9	=9	=9	=9	=9	=9	=9	=9
2C	.	2c	2E	2C	2c	2G	2r	2C	2E	2c	2c
=10:|!	=10:|!	=10:|!	=10:|!	=10:|!	=10:|!	=10:|!	=10:|!	=10:|!	=10:|!	=10:|!	=10:|!
2C	.	2c	2E	2C	2c	2G	2r	2C	2E	2G	2c
=11	=11	=11	=11	=11	=11	=11	=11	=11	=11	=11	=11
2BB	6	2g	2G	2BB	2g	2d	1r	2BB	2G	2d	2g
2C	6	2a	2c	2C	2a	2e	.	2C	2c	2e	2a
=12	=12	=12	=12	=12	=12	=12	=12	=12	=12	=12	=12
1D	6 4	2g	2B	1D	2g	1d	1r	2D	2B	2d	2g
.	5 #	2f#X	2A	.	2f#X	.	.	2D	2A	2d	2f#X
=13	=13	=13	=13	=13	=13	=13	=13	=13	=13	=13	=13
2GG	.	2g	2G	2GG	2g	2d	2B\	2GG	2B	2d	2g
*	*	*	*	*	*	*v	*v	*	*	*	*
2AA	.	2c	2E	2AA	2c	2A	2AA	2E	2c	2c
=14	=14	=14	=14	=14	=14	=14	=14	=14	=14	=14
2E	6	2g	2G	2E	2g	2c	2E	2G	2c	2g
*	*	*	*	*	*	*^	*	*	*	*
2C	-7	2g	2B-X	2C	2g	[2e	2c\	2C	2B-X	[2e	2g
=15	=15	=15	=15	=15	=15	=15	=15	=15	=15	=15	=15
2F	7	2a	2A	2F	2a	4e]	4c\	2F	2A	(4e]	2a
.	6	.	.	.	.	4d	4d\	.	.	4d)	.
*	*	*	*	*	*	*v	*v	*	*	*	*
2D	6	2b	2ryy	2D	2d	2f	2D	2F	2d	2b
=16	=16	=16	=16	=16	=16	=16	=16	=16	=16	=16
2C	.	2cc	1ryy	2C	2e	2g	2C	2G	2e	2cc
2G	.	2b	.	2G	2d	2g	2G	2G	2d	2b
=17	=17	=17	=17	=17	=17	=17	=17	=17	=17	=17
2F#X	5	2cc	1ryy	2F#X	2d	2a	2F#X	2A	2d	2cc
2G	.	2b	.	2G	2d	[2g	2G	[2G	2d	2b
=18	=18	=18	=18	=18	=18	=18	=18	=18	=18	=18
2C	6 5	2a	2ryy	2C	2e	2g]	2C	2G]	2e	2a
2D	#	2a	4d	2D	2a	2f#X	2D	2F#X	(4d	2a
.	.	.	4c	.	.	.	.	.	4c)	.
=19	=19	=19	=19	=19	=19	=19	=19	=19	=19	=19
*	*	*	*	*	*	*	*^	*	*	*
2GG	.	2g	1ryy	2GG	2B	2d	2G	2GG	2G	2B	2g
2FF	.	2a	.	2FFni	2c	2fni	2F	2FF	2c	2c	2a
*	*	*	*	*	*	*	*v	*v	*	*	*
=20	=20	=20	=20	=20	=20	=20	=20	=20	=20	=20
2F	6	2a	2ryy	2F	2d	2f	2F	2A	2d	2a
2G	-	2g	2B-X	2G	2g	2d	2G	2B-X	2d	2g
=21	=21	=21	=21	=21	=21	=21	=21	=21	=21	=21
2C#X	6	4a	1A	2C#X	4a	2e	2C#X	2A	2e	(4a
.	5	4g	.	.	4g	.	.	.	.	4g)
2D	.	2f	.	2D	2f	2d	2D	2A	2d	2f
=22	=22	=22	=22	=22	=22	=22	=22	=22	=22	=22
2AA	#	2e	2A	2AA	2e	2c#X	2AA	2A	2c#X	2e
2A	n	2ccni	2ryy	2A	2e	2a	2A	2e	2e	2cc
=23	=23	=23	=23	=23	=23	=23	=23	=23	=23	=23
2D#X	6	2b	2B	2D#X	2b	2f#X	2D#X	2B	2f#X	2b
2BB	7 #	2a	2ryy	2BB	2d#X	2f#	2BB	2B	2d#X	2a
=24	=24	=24	=24	=24	=24	=24	=24	=24	=24	=24
2E	5	2g	1ryy	4E	4B	2e	2E	(4B	2e	2g
.	6	.	.	4EE	4c	.	.	4c)	.	.
2F	.	2a	.	2FFni	2A	2c	2F	2A	2c	2a
=25	=25	=25	=25	=25	=25	=25	=25	=25	=25	=25
4A	6	4f	4ryy	4AA	2.A	2.c	(4A	(2.A	(2.c	(4f
4F#X	7 5	4e	4ryy	4FF#X	.	.	4F#X	.	.	4e
2G	9 4	2d	4ryy	2GG	.	.	2G)	.	.	2d)
.	8 3	.	8GL	.	8ryy	4B	.	8GL	4B)	.
.	7	.	8FniJ	.	8ryy	.	.	8FJ)	.	.
=26	=26	=26	=26	=26	=26	=26	=26	=26	=26	=26
2C	.	2c	2E	2C	2c	2G	2C	2E	2c	2c
*	*	*	*v	*v	*	*	*	*	*	*
*	*	*	*	*v	*v	*	*	*	*
==	==	==	==	==	==	==	==	==
*-	*-	*-	*-	*-	*-	*-	*-	*-
!!!system-decoration: {(s1,s2,s3,s4)}{(s5,s6)}{(s7,s8)}
!!!RDF**kern: i = editorial accidental, paren
!!!RDF**kern: > = above
!!!RDF**kern: < = below
!!!AGN: chorale
!!!EED: Derek Remeš
!!!EED2: Victor Phan
!!!END: 2023/11/28
!!!ENC: Wolfgang Drescher
!!!EEV: 2023/12/12
!!!title: @{ONM}. @{OTL}
!!!verovio: mnumInterval 1